build/img/header/phone-icon.svg

<svg width="14" height="14" viewBox="0 0 14 14" fill="none" xmlns="http://www.w3.org/2000/svg">
<g id="Frame" clip-path="url(#clip0_556_974)">
<path id="Vector" d="M9.98723 13.1368C9.35359 13.1224 8.61786 12.9131 7.90675 12.6058C6.61895 12.0496 5.48508 11.2549 4.43689 10.3334C3.19014 9.23752 2.10142 8.00411 1.23433 6.58394C0.71306 5.72969 0.288242 4.83388 0.0907115 3.84417C-0.0190845 3.29366 -0.0431988 2.74314 0.0953289 2.19211C0.215217 1.72106 0.470247 1.29536 0.829013 0.967419C1.07477 0.736026 1.31489 0.498478 1.56013 0.266059C1.93723 -0.0930865 2.41336 -0.0879558 2.7802 0.277347C3.46429 0.959382 4.14752 1.64347 4.8299 2.32961C5.18904 2.69183 5.18904 3.18489 4.8299 3.55019C4.65289 3.72976 4.47075 3.90523 4.29528 4.08532C3.87816 4.51013 3.79607 5.08323 4.07826 5.60604C4.86212 7.07613 6.06571 8.27972 7.5358 9.06359C8.05759 9.34578 8.6312 9.26369 9.05653 8.8481C9.24021 8.66904 9.41875 8.48434 9.6014 8.30476C9.95644 7.95588 10.4505 7.95178 10.8035 8.30476C11.4982 8.99501 12.1905 9.68731 12.8804 10.3817C13.2231 10.7269 13.2267 11.2082 12.8927 11.5648C12.6706 11.8023 12.4366 12.0265 12.2191 12.2692C11.6588 12.8823 10.9549 13.143 9.98723 13.1368Z" fill="white"/>
</g>
<defs>
<clipPath id="clip0_556_974">
<rect width="13.1391" height="13.1365" fill="white"/>
</clipPath>
</defs>
</svg>

<svg width="14" height="14" fill="none" xmlns="http://www.w3.org/2000/svg"><g id="Frame" clip-path="url(#clip0_556_974)"><path id="Vector" d="M9.987 13.137c-.633-.015-1.37-.224-2.08-.531-1.288-.556-2.422-1.351-3.47-2.273C3.19 9.238 2.1 8.004 1.234 6.583.714 5.73.288 4.834.091 3.845c-.11-.55-.134-1.1.004-1.652.12-.47.375-.897.734-1.225.246-.231.486-.469.731-.7.377-.36.853-.355 1.22.01a567.03 567.03 0 012.05 2.053c.359.362.359.855 0 1.22-.177.18-.36.355-.535.535-.417.425-.499.998-.217 1.521a8.394 8.394 0 003.458 3.458c.522.282 1.095.2 1.52-.216.184-.179.363-.364.545-.543.355-.35.85-.353 1.202 0 .695.69 1.387 1.382 2.077 2.077.343.345.347.826.013 1.183-.222.237-.456.462-.674.704-.56.613-1.264.874-2.232.868z" fill="#fff"/></g><defs><clipPath id="clip0_556_974"><path fill="#fff" d="M0 0h13.139v13.136H0z"/></clipPath></defs></svg>
